!!!OTL: "Nachtwaechterlied" HOERT IHR HERRN UND LASST EUCH SAGEN
!!!ARE: Europa, Mitteleuropa, Deutschland, Schwaben
!!!SCT: Z1293
!!!YEM: Copyright 1995, estate of Helmut Schaffrath.
**kern
*ICvox
*Ivox
*M3/4
*k[]
*C:
{2c
4e
=1
2g
4e
=2
2cc
4g
=3
2a
4g}
=4
{2cc
4g
=5
2a
4g
=6
4g
4f
4e
=7
4e
4d
4r}
=8
{2g
4e
=9
2a
4g
=10
4g
4f
4e
=11
2d
4r}
=12
{2cc
4g
=13
2a
8g
8f
=14
2e
4d
=15
2c
4r}
==
!!!AGN: Handwerker -, Bauern - Lied
!!!ONB: ESAC (Essen Associative Code) Database: ZUCCAL
!!!AMT: simple triple
!!!AIN: vox
!!!EED: Helmut Schaffrath
!!!EEV: 1.0
*-
